simple/webdriverio.svg

<svg viewBox="0 0 24 24" xmlns="http://www.w3.org/2000/svg"><path d="M1.875 0C.83 0 0 .83 0 1.875v20.25C0 23.155.83 24 1.875 24h20.25c1.03 0 1.875-.84 1.875-1.875V1.875C24 .83 23.16 0 22.125 0Zm.375 6H3v12h-.75Zm7.08 0h.79L5.28 18h-.8Zm6.79 0c3.314 0 6 2.686 6 6s-2.686 6-6 6 -6-2.686-6-6 2.686-6 6-6Zm0 .75c-2.9 0-5.25 2.35-5.25 5.25 0 2.89 2.35 5.25 5.25 5.25 2.89 0 5.25-2.36 5.25-5.25 0-2.9-2.36-5.25-5.25-5.25Z"/></svg>

<svg role="img" viewBox="0 0 24 24" xmlns="http://www.w3.org/2000/svg"><title>WebdriverIO</title><path d="M1.875 0C0.836 0 0 0.836 0 1.875v20.25C0 23.164 0.836 24 1.875 24h20.25C23.164 24 24 23.164 24 22.125V1.875C24 0.836 23.164 0 22.125 0ZM2.25 6H3V18H2.25ZM9.335 6H10.125L5.29 18H4.499ZM16.125 6c3.314 0 6 2.686 6 6 0 3.314-2.686 6-6 6-3.314 0-6-2.686-6-6 0-3.314 2.686-6 6-6zm0 0.75c-2.899 0-5.25 2.351-5.25 5.25 0 2.899 2.351 5.25 5.25 5.25 2.899 0 5.25-2.351 5.25-5.25 0-2.899-2.351-5.25-5.25-5.25z"/></svg>
